**kern	**kern	**dynam
*part1	*part1	*part1
*staff2	*staff1	*
*I"Piano	*	*
*clefF4	*clefG2	*
*k[f#]	*k[f#]	*
*	* The manuscript, IMSLP#436431, ends at this point.  \n   Another arrangement for Soprano and two Altos, or childrens voices, exists which gives some idea how the piece finishes. 	*
=1	=1	=1
*	*^	*
2.GGG 2.GG	2.a	4A 4e	<
.	.	4A 4e	.
.	.	4A 4e	.
=	=	=	=
2.DD 2.D	(2cc	4c 4fn	.
.	.	4c 4f	.
.	[4b)	4B 4f	[
=	=	=	=
2.GGG 2.GG	2.b])	4B 4fn	>
.	.	4B 4f	.
.	.	4B 4f	.
=	=	=	=
2.DD 2.D	(2.g	4r	]
.	.	4B 4fn	.
.	.	4B 4f	.
*	*v	*v	*
=	=	=
2.GGG 2.GG	4B 4fn 4b	.
.	4f 4b 4dd	.
.	4b 4dd 4ffn	.
=	=	=
4CC 4C	(2.a 2.dd#X 2.ff#X 2.aa	.
4F#X 4c 4d#X	.	.
4F# 4c 4d#	.	.
=	=	=
*	*^	*
2.G 2.c 2.e	2.cc)) 2.ee 2.gg	4g	.
.	.	4cc	.
.	.	4g	.
*	*v	*v	*
=	=	=
4AA	(4g 4cc#X 4ffn	.
4A 4c#X	8aaL	.
.	8ff	.
4A 4c#	8cc#	.
.	[8gJ	.
=	=	=
4AA	2.g]) 2.cc#X 2.ee	.
4G 4B-X	.	.
4G 4A	.	.
=	=	=
*^	*	*
4rF	2.D	(4f#X 4ee	.
4A 4c 4e	.	8aaL	.
.	.	8ee	.
4A^ 4c	.	8cc	.
.	.	[8f#J	.
=	=	=	=
4rF	2.D	2f#]) 2ee-X	.
4A 4c 4e-X	.	.	.
4A 4c	.	4f# 4ee-	.
*v	*v	*	*
=	=	=
*-	*-	*-
!!!system-decoration: {(s1,s2)}
